X:0710
T:"The One-Legged Man"   (jig)    0710
C:after Chief   F. O'Neill
B:O'Neill's Music Of Ireland (The 1850) Lyon & Healy, Chicago, 1903 edition
Z:FROM O'NEILL'S TO NOTEWORTHY, FROM NOTEWORTHY TO ABC, MIDI AND .TXT BY VINCE
BRENNAN June 2003 (HTTP://WWW.SOSYOURMOM.COM)
M:6/8
L:1/8
K:D
A|A2d dcB|AFA AFA|dfd ege|fdB B2A|
A2d dcB|ABA AFA|dcd eag|fdd d2:|
|:f/2g/2|afd cBA|BGG G2g/2a/2|bge dcB|cAA A2A|
A2d dcB|ABA AFA|dcd eag|fdd d2:|
